static/img/kroki/02da2193a68018a4073d5bfb7b97d7bb.svg

<?xml version="1.0" encoding="us-ascii" standalone="no"?><svg xmlns="http://www.w3.org/2000/svg" xmlns:xlink="http://www.w3.org/1999/xlink" contentStyleType="text/css" height="152px" preserveAspectRatio="none" style="width:288px;height:152px;" version="1.1" viewBox="0 0 288 152" width="288px" zoomAndPan="magnify"><defs/><g><!--class aws_q_business_application--><g id="elem_aws_q_business_application"><rect codeLine="23" fill="#3D176E" height="39.7891" id="aws_q_business_application" rx="2.5" ry="2.5" style="stroke:#000D19;stroke-width:0.5;" width="274" x="7" y="7"/><ellipse cx="22" cy="26.8945" fill="#ADD1B2" rx="11" ry="11" style="stroke:#181818;stroke-width:1.0;"/><path d="M24.9688,32.5352 Q24.3906,32.832 23.75,32.9727 Q23.1094,33.1289 22.4063,33.1289 Q19.9063,33.1289 18.5781,31.4883 Q17.2656,29.832 17.2656,26.707 Q17.2656,23.582 18.5781,21.9258 Q19.9063,20.2695 22.4063,20.2695 Q23.1094,20.2695 23.75,20.4258 Q24.4063,20.582 24.9688,20.8789 L24.9688,23.5977 Q24.3438,23.0195 23.75,22.7539 Q23.1563,22.4727 22.5313,22.4727 Q21.1875,22.4727 20.5,23.5508 Q19.8125,24.6133 19.8125,26.707 Q19.8125,28.8008 20.5,29.8789 Q21.1875,30.9414 22.5313,30.9414 Q23.1563,30.9414 23.75,30.6758 Q24.3438,30.3945 24.9688,29.8164 L24.9688,32.5352 Z " fill="#000000"/><text fill="#D9B8FF" font-family="Helvetica" font-size="17" lengthAdjust="spacing" textLength="232" x="41" y="32.7798">aws_q_business_application</text></g><!--class aws_q_business_document--><g id="elem_aws_q_business_document"><rect codeLine="26" fill="#3D176E" height="39.7891" id="aws_q_business_document" rx="2.5" ry="2.5" style="stroke:#000D19;stroke-width:0.5;" width="267" x="10.5" y="106.79"/><ellipse cx="25.5" cy="126.6845" fill="#ADD1B2" rx="11" ry="11" style="stroke:#181818;stroke-width:1.0;"/><path d="M28.4688,132.3252 Q27.8906,132.622 27.25,132.7627 Q26.6094,132.9189 25.9063,132.9189 Q23.4063,132.9189 22.0781,131.2783 Q20.7656,129.622 20.7656,126.497 Q20.7656,123.372 22.0781,121.7158 Q23.4063,120.0595 25.9063,120.0595 Q26.6094,120.0595 27.25,120.2158 Q27.9063,120.372 28.4688,120.6689 L28.4688,123.3877 Q27.8438,122.8095 27.25,122.5439 Q26.6563,122.2627 26.0313,122.2627 Q24.6875,122.2627 24,123.3408 Q23.3125,124.4033 23.3125,126.497 Q23.3125,128.5908 24,129.6689 Q24.6875,130.7314 26.0313,130.7314 Q26.6563,130.7314 27.25,130.4658 Q27.8438,130.1845 28.4688,129.6064 L28.4688,132.3252 Z " fill="#000000"/><text fill="#D9B8FF" font-family="Helvetica" font-size="17" lengthAdjust="spacing" textLength="225" x="44.5" y="132.5698">aws_q_business_document</text></g><!--link aws_q_business_application to aws_q_business_document--><g id="link_aws_q_business_application_aws_q_business_document"><path codeLine="29" d="M144,47.22 C144,64.36 144,83.27 144,100.41 " fill="none" id="aws_q_business_application-to-aws_q_business_document" style="stroke:#1A83AF;stroke-width:2.0;"/><polygon fill="#1A83AF" points="144,106.41,148,97.41,144,101.41,140,97.41,144,106.41" style="stroke:#1A83AF;stroke-width:2.0;"/></g><!--SRC=[XP9FIyD04CNl-HGBFHSIWwQv235Gz5B4UXCfa-nikoIx6sStbYf-TnEhiatwvphlntjlXjb8ZWnLutPCeIgGR60hgHiWK2mZCjlSr8ROH0WGSJ8KvqQxYy025B9xhD_HoHA6nFD6bfL6QzcL9zr1MQt9j9hlxHs1jfs4sdbKNeErcNCaYzQXLuQdnKo88JaqdSGyIcvmX1dYIBz868OyIeV8nQYpU_yJI_c1BFAFjZ0EHpL74J_KsPOzuPKSBVgdd-pu29nBlMRNtknftuaqqi5ykG5kjZqjeBP-Z7L8QDokmNoq5QOpBfAZyCCfE2Zxqp7OsjNRgcYjx1zd1KrJT-sTD9fz1i7NSOgRibNT_-oHCnRJbqcKpU9i_ZgzFMKIV0C0]--></g></svg>

<svg xmlns="http://www.w3.org/2000/svg" width="288" height="152" viewBox="0 0 288 152"><rect width="274" height="39.789" x="7" y="7" fill="#3D176E" rx="2.5" ry="2.5" style="stroke:#000d19;stroke-width:.5"/><circle cx="22" cy="26.895" r="11" fill="#ADD1B2" style="stroke:#181818;stroke-width:1"/><path d="M24.969 32.535q-.578.297-1.219.438-.64.156-1.344.156-2.5 0-3.828-1.64-1.312-1.657-1.312-4.782t1.312-4.781q1.328-1.656 3.828-1.656.703 0 1.344.156.656.156 1.219.453v2.719q-.625-.578-1.219-.844-.594-.281-1.219-.281-1.343 0-2.031 1.078-.687 1.062-.687 3.156t.687 3.172q.688 1.062 2.031 1.062.625 0 1.219-.265.594-.281 1.219-.86z"/><text x="41" y="32.78" fill="#D9B8FF" font-family="Helvetica" font-size="17" textLength="232">aws_q_business_application</text><rect width="267" height="39.789" x="10.5" y="106.79" fill="#3D176E" rx="2.5" ry="2.5" style="stroke:#000d19;stroke-width:.5"/><circle cx="25.5" cy="126.684" r="11" fill="#ADD1B2" style="stroke:#181818;stroke-width:1"/><path d="M28.469 132.325q-.578.297-1.219.438-.64.156-1.344.156-2.5 0-3.828-1.64-1.312-1.657-1.312-4.782t1.312-4.781q1.328-1.656 3.828-1.656.703 0 1.344.156.656.156 1.219.453v2.719q-.625-.579-1.219-.844-.594-.281-1.219-.281-1.343 0-2.031 1.078-.687 1.062-.687 3.156t.687 3.172q.688 1.062 2.031 1.062.625 0 1.219-.265.594-.281 1.219-.86z"/><text x="44.5" y="132.57" fill="#D9B8FF" font-family="Helvetica" font-size="17" textLength="225">aws_q_business_document</text><path fill="none" d="M144 47.22v53.19" style="stroke:#1a83af;stroke-width:2"/><path fill="#1A83AF" d="m144 106.41 4-9-4 4-4-4z" style="stroke:#1a83af;stroke-width:2"/></svg>
